X:4
T:Die sch\"one Schwarzw\"alderin (Walzer) EbAb (5letras) cf. CF
M:3/4
L:1/4
K:Ebmaj%%MIDI gchordon
"Eb"(G3 | G)Bg | f2e | B2=B | "Ab"c3 | cde | "Eb"e3 | ega | "Bb7"(b3 | 
b)=a_a | "Eb"g3 | gec | "Bb7"B3 | Bcd | "Eb"(e3 | e)zg || "Eb"g^f>g | e2c | 
(B3 | B)zg | g^f>g | e2B | "Bb7"(d3 | d)zf | f=e>f | b2g | "Eb"(g3 | 
g)zB | "Ab"c=B>c | "Bb7"f2b | "Eb"(e3 | e)zz || [K:Abmaj] "Ab"c3 | cd=d | "Eb7"(e3 | e)zB | 
"Bb7"Bc/2B/2 =A/2B/2 | "Eb7"e2B | "Ab"(c3 | c)zA | "Db"[fa]3 | "Eb7"[ge]2 [Be] | [Be]2 [df] | [Ge]2 [dB] | "Ab"[Ac]3 | 
"Eb7"[GB]2 A | "Ab"(A3 | A)zc || "Ab"agf | "Eb7"e3 | "Bbm"fed | "C7"c3 | "Eb7"dcB | "Ab"A3 | 
"Fm"Acf | "Eb7"e3 | "Ab".c'.b.a | "Eb7"g3 | "Bbm".a.g.f | "Cm".e.d.c | "Eb7"B3 | .d.c.B | "Ab"(A3 | A)zz |] 

